X:1
T: Rosemary Lailey's Reel
C:Bruce Shawyer
R:Reel
Q:232
%W:
K:G
M:4/4
L:1/8
"G"G2G2 B2d2|"G"g2fg d2B2|"Am"c2c2 e2c2|"D7"A2cB A2D2|"G"G2G2 B2d2|"G"g2fg d2B2|"Am"cBA2 "G"B2G2|"D7"AGF2 "G"G4|
"G"G2G2 B2d2|"G"g2fg d2B2|"Am"c2c2 e2c2|"D7"A2cB A2D2|"G"G2G2 B2d2|"G"g2fg d2B2|"Am"cBA2 "G"B2G2|"D7"AGF2 "G"G4|
"G"g2g2 d2g2|"G"bag2 bag2|"Am"e2e2 g2e2|"Am"cde2 "D7"def2|"G"g2g2 d2g2|"Am"bag2 "D7"bag2|"Am"efg2 "D7"f2d2|"G"g2g2 g4|
"G"g2g2 d2g2|"G"bag2 bag2|"Am"e2e2 g2e2|"Am"cde2 "D7"def2|"G"g2g2 d2g2|"Am"bag2 "D7"bag2|"Am"efg2 "D7"f2d2|"G"g2g2 g4||
